src/assets/linkedin.svg

<svg width="35" height="35" viewBox="0 0 35 35" fill="none" xmlns="http://www.w3.org/2000/svg">
<path d="M32.4092 0H2.58398C1.15527 0 0 1.12793 0 2.52246V32.4707C0 33.8652 1.15527 35 2.58398 35H32.4092C33.8379 35 35 33.8652 35 32.4775V2.52246C35 1.12793 33.8379 0 32.4092 0ZM10.3838 29.8252H5.18848V13.1182H10.3838V29.8252ZM7.78613 10.8418C6.11816 10.8418 4.77148 9.49512 4.77148 7.83398C4.77148 6.17285 6.11816 4.82617 7.78613 4.82617C9.44727 4.82617 10.7939 6.17285 10.7939 7.83398C10.7939 9.48828 9.44727 10.8418 7.78613 10.8418ZM29.8252 29.8252H24.6367V21.7041C24.6367 19.7695 24.6025 17.2744 21.9365 17.2744C19.2363 17.2744 18.8262 19.3867 18.8262 21.5674V29.8252H13.6445V13.1182H18.6211V15.4014H18.6895C19.3799 14.0889 21.0752 12.7012 23.5977 12.7012C28.8545 12.7012 29.8252 16.1602 29.8252 20.6582V29.8252V29.8252Z" fill="#151515"/>
</svg>

<svg width="35" height="35" fill="none" xmlns="http://www.w3.org/2000/svg"><path d="M32.41 0H2.583C1.155 0 0 1.128 0 2.522v29.949C0 33.865 1.155 35 2.584 35h29.825C33.838 35 35 33.865 35 32.477V2.523C35 1.128 33.838 0 32.41 0zM10.383 29.825H5.188V13.118h5.196v16.707zM7.786 10.842a3.01 3.01 0 0 1-3.015-3.008 3.01 3.01 0 0 1 3.015-3.008 3.008 3.008 0 0 1 0 6.016zm22.04 18.983h-5.19v-8.12c0-1.935-.034-4.43-2.7-4.43-2.7 0-3.11 2.112-3.11 4.292v8.258h-5.181V13.118h4.976v2.283h.069c.69-1.312 2.385-2.7 4.908-2.7 5.257 0 6.227 3.46 6.227 7.957v9.167z" fill="#151515"/></svg>
